src/view/frontend/web/svg/heroicons/solid/color-swatch.svg

<svg viewBox="0 0 20 20" fill="currentColor" xmlns="http://www.w3.org/2000/svg">
<path fill-rule="evenodd" clip-rule="evenodd" d="M4 2C2.89543 2 2 2.89543 2 4V15C2 16.6569 3.34315 18 5 18C6.65685 18 8 16.6569 8 15V4C8 2.89543 7.10457 2 6 2H4ZM5 16C5.55228 16 6 15.5523 6 15C6 14.4477 5.55228 14 5 14C4.44772 14 4 14.4477 4 15C4 15.5523 4.44772 16 5 16ZM10 14.2426L14.8995 9.34308C15.6805 8.56203 15.6805 7.2957 14.8995 6.51465L13.4853 5.10044C12.7042 4.31939 11.4379 4.31939 10.6568 5.10044L10 5.75728V14.2426ZM16 18H9.07104L15.071 12H16C17.1046 12 18 12.8954 18 14V16C18 17.1046 17.1046 18 16 18Z" />
</svg>

<svg xmlns="http://www.w3.org/2000/svg" fill="currentColor" viewBox="0 0 20 20"><path fill-rule="evenodd" d="M4 2a2 2 0 0 0-2 2v11a3 3 0 1 0 6 0V4a2 2 0 0 0-2-2H4Zm1 14a1 1 0 1 0 0-2 1 1 0 0 0 0 2Zm5-1.757 4.9-4.9a2 2 0 0 0 0-2.828L13.485 5.1a2 2 0 0 0-2.828 0L10 5.757v8.486ZM16 18H9.071l6-6H16a2 2 0 0 1 2 2v2a2 2 0 0 1-2 2Z" clip-rule="evenodd"/></svg>
